public/images/logo-icon.svg

<svg fill="none" height="34" viewBox="0 0 34 34" width="34" xmlns="http://www.w3.org/2000/svg">
  <path d="m18.7597 23.2909c0-.6386.1252-1.2712.3677-1.8611.2436-.59.5998-1.1258 1.0495-1.5769.4496-.4511.9834-.8086 1.5696-1.052.5874-.2433 1.2157-.3679 1.8508-.3663 1.2794 0 2.5076.5116 3.4126 1.4223.9049.9108 1.4137 2.1461 1.4137 3.434.0011.6388-.1229 1.2714-.3642 1.8619-.2425.5906-.5976 1.1273-1.0461 1.5795-.4474.4522-.9801.8109-1.5663 1.0557-.5862.2447-1.2157.3707-1.8497.3707-1.2828 0-2.5132-.5129-3.4204-1.4257-.9072-.9129-1.4172-2.151-1.4172-3.4421z" fill="#ed1c2e" />
  <path d="m26.7493.00559187h-3.4148c-1.1338.01251663-2.2458.31831713-3.2282.88796413-.9834.569644-1.803 1.383964-2.3835 2.364834l-17.7228 30.71871h8.41179l14.92271-25.81652v9.23162h.2162c1.556.003 3.0472.6271 4.1467 1.7351 1.0984 1.1081 1.7154 2.6095 1.7154 4.1749 0 1.5655-.617 3.067-1.7154 4.1751-1.0995 1.108-2.5907 1.732-4.1467 1.7351h-.2162v4.7876h10.6655v-27.22534c-.0763-1.8707-.8878-3.63416-2.256-4.90331-1.3682-1.26914-3.1804-1.9401879-5.0403-1.86575813" fill="#010101" />
</svg>

<svg width="34" height="34" viewBox="0 0 34 34" fill="none" xmlns="http://www.w3.org/2000/svg">
  <path d="M18.7597 23.2909C18.7597 22.6523 18.8849 22.0197 19.1274 21.4298C19.371 20.8398 19.7272 20.304 20.1769 19.8529C20.6265 19.4018 21.1603 19.0443 21.7465 18.8009C22.3339 18.5576 22.9622 18.433 23.5973 18.4346C24.8767 18.4346 26.1049 18.9462 27.0099 19.8569C27.9148 20.7677 28.4236 22.003 28.4236 23.2909C28.4247 23.9297 28.3007 24.5623 28.0594 25.1528C27.8169 25.7434 27.4618 26.2801 27.0133 26.7323C26.5659 27.1845 26.0332 27.5432 25.447 27.788C24.8608 28.0327 24.2313 28.1587 23.5973 28.1587C22.3145 28.1587 21.0841 27.6458 20.1769 26.733C19.2697 25.8201 18.7597 24.582 18.7597 23.2909Z" fill="#ED1C2E"/>
  <path d="M26.7493 0.00559187H23.3345C22.2007 0.0181085 21.0887 0.323909 20.1063 0.893556C19.1229 1.4632 18.3033 2.27752 17.7228 3.25839L0 33.9771H8.41179L23.3345 8.16058V17.3922H23.5507C25.1067 17.3952 26.5979 18.0193 27.6974 19.1273C28.7958 20.2354 29.4128 21.7368 29.4128 23.3022C29.4128 24.8677 28.7958 26.3692 27.6974 27.4773C26.5979 28.5853 25.1067 29.2093 23.5507 29.2124H23.3345V34H34V6.77466C33.9237 4.90396 33.1122 3.1405 31.744 1.87135C30.3758 0.60221 28.5636 -0.0688379 26.7037 0.00559187" fill="#005A9B"/>
</svg>
